.local/share/icons/Gruvbox-Plus-Dark/mimetypes/scalable/application-script-blank.svg

<svg width="256" height="256" viewBox="0 0 256 256" fill="none" xmlns="http://www.w3.org/2000/svg">
<g clip-path="url(#clip0)">
<g opacity="0.4" filter="url(#filter0_f)">
<path d="M55.0839 15.5636H155.608L216.009 75.7129L216.011 224.609C216.011 233.52 208.749 240.737 199.838 240.737H55.0838C46.1734 240.737 39 233.564 39 224.654V31.6474C39 22.737 46.1734 15.5636 55.0838 15.5636H55.0839Z" fill="#282828"/>
</g>
<path d="M55.0839 15H155.608L216.009 75.1493L216.011 224.045C216.011 232.956 208.749 240.174 199.838 240.174H55.0838C46.1734 240.174 39 233 39 224.09V31.0838C39 22.1734 46.1734 15 55.0838 15H55.0839Z" fill="#ebdbb2"/>
<path fill-rule="evenodd" clip-rule="evenodd" d="M155.609 22.9787H55.0839C50.58 22.9787 46.9787 26.5799 46.9787 31.0838V224.09C46.9787 228.594 50.5799 232.195 55.0838 232.195H199.838C204.371 232.195 208.032 228.521 208.032 224.046V75.1493L155.609 22.9787ZM155.608 15H55.0839C46.1735 15 39 22.1734 39 31.0838V224.09C39 233 46.1734 240.174 55.0838 240.174H199.838C208.749 240.174 216.011 232.956 216.011 224.045L216.009 75.1493L155.608 15Z" fill="url(#paint0_linear)"/>
<path d="M93.3078 159.179C93.3078 162.988 94.4956 165.729 96.8222 167.45C99.2478 169.172 102.767 170.091 107.387 170.165V178C99.6344 177.925 93.6256 176.279 89.4089 173.127C85.1389 169.945 83.0311 165.482 83.0311 159.736V142.786C83.0311 138.906 81.7578 136.151 79.1644 134.499C76.6189 132.823 72.8689 131.975 68 131.975V124.069C73.2711 123.995 77.1078 123.121 79.4689 121.399C81.8467 119.678 83.0356 117.038 83.0356 113.449V96.3234C83.0356 90.5322 85.2289 86.0402 89.6311 82.8173C94.0156 79.6245 99.96 78.0184 107.396 78.0184V85.8088C97.9878 86.044 93.3167 89.7335 93.3167 96.9362V113.449C93.3167 121.471 88.7478 126.198 79.6533 127.658V128.36C88.7433 129.791 93.3167 134.544 93.3167 142.569V159.183L93.3078 159.179ZM176.213 127.64C167.124 126.18 162.55 121.456 162.55 113.431V96.9178C162.55 89.7103 157.93 86.0208 148.656 85.7894V78C156.173 78 162.067 79.6061 166.369 82.8735C170.656 86.1263 172.832 90.5883 172.832 96.3089V113.435C172.832 117.068 174.02 119.737 176.432 121.415C178.858 123.106 182.729 123.983 188 124.055V131.961C183.029 131.961 179.244 132.808 176.698 134.484C174.106 136.131 172.832 138.891 172.832 142.771V159.721C172.832 165.423 170.723 169.859 166.554 173.037C162.366 176.26 156.443 177.91 148.656 177.982V170.147C153.178 170.072 156.658 169.153 159.037 167.432C161.363 165.711 162.55 162.969 162.55 159.161V142.547C162.55 138.301 163.691 135.041 165.932 132.804C168.173 130.571 171.607 129.07 176.21 128.341V127.64" fill="url(#paint1_linear)"/>
<path opacity="0.25" d="M155.608 17V61.2306C155.608 70.141 162.867 77.1605 171.777 77.1605L216.009 77.1493V75.1493L155.608 17Z" fill="#282828"/>
<path d="M155.608 15V59.2306C155.608 68.141 162.867 75.1605 171.777 75.1605L216.009 75.1493L155.608 15Z" fill="url(#paint2_linear)"/>
</g>
<defs>
<filter id="filter0_f" x="23.8778" y="0.441412" width="207.255" height="255.418" filterUnits="userSpaceOnUse" color-interpolation-filters="sRGB">
<feFlood flood-opacity="0" result="BackgroundImageFix"/>
<feBlend mode="normal" in="SourceGraphic" in2="BackgroundImageFix" result="shape"/>
<feGaussianBlur stdDeviation="7.5611" result="effect1_foregroundBlur"/>
</filter>
<linearGradient id="paint0_linear" x1="126.411" y1="14.914" x2="127.127" y2="240.916" gradientUnits="userSpaceOnUse">
<stop stop-color="#83a598"/>
<stop offset="1" stop-color="#458588"/>
</linearGradient>
<linearGradient id="paint1_linear" x1="127.258" y1="77.9618" x2="127.466" y2="178.33" gradientUnits="userSpaceOnUse">
<stop stop-color="#83a598"/>
<stop offset="1" stop-color="#458588"/>
</linearGradient>
<linearGradient id="paint2_linear" x1="185.435" y1="14.977" x2="185.585" y2="75.3591" gradientUnits="userSpaceOnUse">
<stop stop-color="#83a598"/>
<stop offset="1" stop-color="#458588"/>
</linearGradient>
<clipPath id="clip0">
<rect width="256" height="256" fill="#ebdbb2"/>
</clipPath>
</defs>
</svg>

<svg width="256" height="256" fill="none" version="1.1" viewBox="0 0 256 256" xmlns="http://www.w3.org/2000/svg">
  <path d="m55.08 15h100.5l60.4 60.15 2e-3 148.9c0 8.911-7.262 16.13-16.17 16.13h-144.8c-8.91 0-16.08-7.174-16.08-16.08v-193c0-8.91 7.173-16.08 16.08-16.08h1e-4z" fill="#ebdbb2"/>
  <path d="m155.6 22.98h-100.5c-4.504 0-8.105 3.601-8.105 8.105v193c0 4.504 3.601 8.105 8.105 8.105h144.8c4.533 0 8.194-3.674 8.194-8.149v-148.9l-52.42-52.17zm-1e-3 -7.979h-100.5c-8.91 0-16.08 7.173-16.08 16.08v193c0 8.91 7.173 16.08 16.08 16.08h144.8c8.911 0 16.17-7.218 16.17-16.13l-2e-3 -148.9-60.4-60.15z" clip-rule="evenodd" fill="url(#paint0_linear)" fill-rule="evenodd"/>
  <path d="m93.31 159.2c0 3.809 1.188 6.55 3.514 8.271 2.426 1.722 5.945 2.641 10.56 2.715v7.835c-7.753-0.075-13.76-1.721-17.98-4.873-4.27-3.182-6.378-7.645-6.378-13.39v-16.95c0-3.88-1.273-6.635-3.867-8.287-2.546-1.676-6.296-2.524-11.16-2.524v-7.906c5.271-0.074 9.108-0.948 11.47-2.67 2.378-1.721 3.567-4.361 3.567-7.95v-17.13c0-5.791 2.193-10.28 6.596-13.51 4.384-3.193 10.33-4.799 17.76-4.799v7.79c-9.408 0.2352-14.08 3.925-14.08 11.13v16.51c0 8.022-4.569 12.75-13.66 14.21v0.702c9.09 1.431 13.66 6.184 13.66 14.21v16.61l-0.0089-4e-3zm82.91-31.54c-9.089-1.46-13.66-6.184-13.66-14.21v-16.51c0-7.208-4.62-10.9-13.89-11.13v-7.789c7.517 0 13.41 1.606 17.71 4.874 4.287 3.253 6.463 7.715 6.463 13.44v17.13c0 3.633 1.188 6.302 3.6 7.98 2.426 1.691 6.297 2.568 11.57 2.64v7.906c-4.971 0-8.756 0.847-11.3 2.523-2.592 1.647-3.866 4.407-3.866 8.287v16.95c0 5.702-2.109 10.14-6.278 13.32-4.188 3.223-10.11 4.873-17.9 4.945v-7.835c4.522-0.075 8.002-0.994 10.38-2.715 2.326-1.721 3.513-4.463 3.513-8.271v-16.61c0-4.246 1.141-7.506 3.382-9.743 2.241-2.233 5.675-3.734 10.28-4.463v-0.701" fill="url(#paint1_linear)"/>
  <path d="m155.6 17v44.23c0 8.91 7.259 15.93 16.17 15.93l44.23-0.0112v-2l-60.4-58.15z" fill="#282828" opacity=".25"/>
  <path d="m155.6 15v44.23c0 8.91 7.259 15.93 16.17 15.93l44.23-0.0112-60.4-60.15z" fill="url(#paint2_linear)"/>
  <defs>
    <linearGradient id="paint0_linear" x1="126.4" x2="127.1" y1="14.91" y2="240.9" gradientUnits="userSpaceOnUse">
      <stop stop-color="#83a598" offset="0"/>
      <stop stop-color="#458588" offset="1"/>
    </linearGradient>
    <linearGradient id="paint1_linear" x1="127.3" x2="127.5" y1="77.96" y2="178.3" gradientUnits="userSpaceOnUse">
      <stop stop-color="#83a598" offset="0"/>
      <stop stop-color="#458588" offset="1"/>
    </linearGradient>
    <linearGradient id="paint2_linear" x1="185.4" x2="185.6" y1="14.98" y2="75.36" gradientUnits="userSpaceOnUse">
      <stop stop-color="#83a598" offset="0"/>
      <stop stop-color="#458588" offset="1"/>
    </linearGradient>
  </defs>
</svg>
